X:1
T:A Rose-bud
T:text: Robert Burns (1787)
T:setting: Joachim Kelecom (°1977)
T:A Rose-bud
T:©
T:©
T:©
T:©
C:text: Robert Burns (1787)
Z:©
%%score [ 1 2 3 ]
L:1/8
Q:1/4=100
M:6/8
K:F
V:1 treble-8 nm="Tenor" snm="T"
V:2 treble-8 nm="Baritone" snm="B"
V:3 bass nm="Bass" snm="B"
V:1
 z | z6 | z6 | z6 | z6 | z6 | z4 z d | c2 c d2 e | c3 c2 z | z6 | z6 | z6 | z6 | z6 | z4 z f | %15
w: ||||||all|on a dew- y|morn- ing||||||it|
 f2 d d2 c | c3 c2 || c | c2 c c2 c | f2 f e2 d | c2 B c A2 | G2 c c2 c | e2 d c2 B | c2 f f2 d | %24
w: scents the ear- ly|morn- ing.|2. With-|in the bush her|co- vert nest A|litt- le lin- net|fond- ly prest, The|dew sat chil- ly|on her breast Sae|
 c2 c c2 c | c3 c2 c | f2 e d2 c | B A2 G2 A | c2 c c2 c | c2 c c2 c | A2 c d2 e | f2 f e2 d | %32
w: ear- ly in the|morn- ing. She|soon shall see her|ten- der brood The|pride, the plea- sure|o' the wood A-|mang the fresh green|leaves be- dew'd, A-|
 f2 f d2 c | c3 c2 || c | c2 c c2 c | c2 c c2 c | c2 c c2 c | c2 c c2 c | c2 c c2 c | c2 c c2 c | %41
w: wake the ear- ly|morn- ing.|3. So|thou, young bird, young|Jea- ny fair, On|tremb- ling string or|voc- al air Shall|sweet- ly pay the|ten- der care That|
 c2 A d2 c | c3 c2 f | f2 e d2 c | B2 A G2 A | c2 c c2 c | c2 c c2 c | A2 c c2 c | f2 f e2 d | %49
w: tents thy ear- ly|morn- ing. So|thou, sweet rose- bud|young and gay, Shalt|beau- teous blaze up-|on the day And|bless the par- ents'|even- ing ray That|
 c2 c d2 c | c3 c2 |] %51
w: watch'd thy ear- ly|morn- ing.|
V:2
 c | c2 B A2 G | A2 d c2 B | A2 G A F2 | G2 C C2 c | c2 B A2 G | A2 d c2 B | (c<A)F B2 G | %8
w: 1. A|Rose- bud by my|ear- ly walk a-|down a corn en-|clos- ed bawk, sae|gent- ly bent its|thorn- y stalk all|on _ a dew- y|
 A3 A2 c | d2 c B2 A | G F2 D2 F | A2 F A2 F | G2 C C2 C | F2 G A2 c | d2 d c2 B | (c<A)F B2 G | %16
w: morn- ing. Ere|twice the shades o'|dawn are fled, in|a' its crim- son|glo- ry spread, and|droop- ing rich the|dew- y head, it|scents _ the ear- ly|
 A3 A2 || c | c2 B A2 G | A2 d c2 B | A2 G A F2 | G2 C C2 c | c2 B A2 G | A2 d c2 B | (c<A)F B2 G | %25
w: morn- ing.|2. With-|in the bush her|co- vert nest A|litt- le lin- net|fond- ly prest, The|dew sat chil- ly|on her breast Sae|ear- * ly in the|
 A3 A2 c | d2 c B2 A | G F2 D2 F | A2 F A2 F | G2 C C2 C | F2 G A2 c | d2 d c2 B | (c<A)F B2 G | %33
w: morn- ing. She|soon shall see her|ten- der brood The|pride, the plea- sure|o' the wood A-|mang the fresh green|leaves be- dew'd, A-|wake _ the ear- ly|
 A3 A2 || c | c2 B A2 G | A2 d c2 B | A2 G A F2 | G2 C C2 c | c2 B A2 G | A2 d c2 B | (c<A)F B2 G | %42
w: morn- ing.|3. So|thou, young bird, young|Jea- ny fair, On|tremb- ling string or|voc- al air Shall|sweet- ly pay the|ten- der care That|tents _ thy ear- ly|
 A3 A2 c | d2 c B2 A | G F2 D2 F | A2 F A2 F | G2 C C2 C | F2 G A2 c | d2 d c2 B | (c<A)F B2 G | %50
w: morn- ing. So|thou, sweet rose- bud|young and gay, Shalt|beau- teous blaze up-|on the day And|bless the par- ents'|even- ing ray That|watch'd _ thy ear- ly|
 A3 A2 |] %51
w: morn- ing.|
V:3
 z | z6 | z6 | z6 | z6 | z6 | z4 z B,, | F,,2 F,, B,,2 C, | F,,3 F,,2 F, | F,2 F, F,2 F, | %10
w: ||||||all|on a dew- y|morn- ing. Ere|twice the shades o'|
 F,2 F, F,2 F, | F,2 F, F,2 F, | F,2 F, F,2 F, | F,2 F, F,2 F, | F,2 F, F,2 B,, | %15
w: dawn are fled, in|a' its crim- son|glo- ry spread, and|droop- ing rich the|dew- y head, it|
 F,,2 F,, B,,2 C, | F,,3 F,,2 || C, | C,2 C, C,2 C, | D,2 D, E,2 E, | F,2 F, F, F,2 | %21
w: scents the ear- ly|morn- ing.|2. With-|in the bush her|co- vert nest A|litt- le lin- net|
 C,2 C, C,2 C, | C,2 C, C,2 C, | F,,2 F,, F,,2 F,, | C,2 C, C,2 C, | F,3 F,2 F, | %26
w: fond- ly prest, The|dew sat chil- ly|on her breast Sae|ear- ly in the|morn- ing. She|
 B,,2 B,, B,,2 B,, | C, C,2 B,,2 C, | F,,2 F,, F,,2 F,, | C,2 C, C,2 C, | D,2 E, F,2 G, | %31
w: soon shall see her|ten- der brood The|pride, the plea- sure|o' the wood A-|mang the fresh green|
 A,2 B, C2 B, | A,<F,F, B,,2 C, | F,3 F,2 || F, | F,2 F, F,2 F, | F,2 F, F,2 F, | F,2 F, F, F,2 | %38
w: leaves be- dew'd, A-|wake _ the ear- ly|morn- ing.|3. So|thou, young bird, young|Jea- ny fair, On|tremb- ling string or|
 F,2 F, F,2 F, | F,2 F, F,2 F, | F,2 F, F,2 B,, | C,2 C, C,2 C, | F,3 F,2 F, | B,,2 B,, B,,2 B,, | %44
w: voc- al air Shall|sweet- ly pay the|ten- der care That|tents thy ear- ly|morn- ing. So|thou, sweet rose- bud|
 C, F,2 B,,2 B,, | F,2 F, F,2 F, | C,2 D, E,2 E, | D,2 E, F,2 G, | B,2 B, A,2 G, | %49
w: young and gay, Shalt|beau- teous blaze up-|on the day And|bless the par- ents'|even- ing ray That|
 A,<F,F, B,,2 C, | F,3 F,2 |] %51
w: watch'd _ thy ear- ly|morn- ing.|

